16x16/actions/view-financial-account-checking.svg

<svg viewBox="0 0 16 16" xmlns="http://www.w3.org/2000/svg"><path d="m3 2v6h-2v6h12v-6h-9v-5h10v11h1v-12zm2 2v1h4v-1zm0 2v1h3v-1zm-3 3h10v4h-10zm1 2v1h6v-1zm7 0v1h1v-1z" fill="#555e70"/><path d="m10 4v1h3v-1z" fill="#da4453"/></svg>

<svg viewBox="0 0 16 16" xmlns="http://www.w3.org/2000/svg">
    <path d="M3 2v6H1v6h12V8H4V3h10v11h1V2zm2 2v1h4V4zm0 2v1h3V6zM2 9h10v4H2zm1 2v1h6v-1zm7 0v1h1v-1z" fill="#555e70"/>
    <path d="M10 4v1h3V4z" fill="#da4453"/>
</svg>
